fs/calendar_work_week_28_filled.svg

<svg viewBox="0 0 28 28" fill="none" xmlns="http://www.w3.org/2000/svg" height="1em" width="1em">
  <path d="M9 13.5V9.5H19V13.5H9ZM3 21.75C3 23.5449 4.45507 25 6.25 25H21.75C23.5449 25 25 23.5449 25 21.75V6.25C25 4.45507 23.5449 3 21.75 3H6.25C4.45507 3 3 4.45507 3 6.25V21.75ZM8.25 8H19.75C20.1642 8 20.5 8.33579 20.5 8.75V14.25C20.5 14.6642 20.1642 15 19.75 15H8.25C7.83579 15 7.5 14.6642 7.5 14.25V8.75C7.5 8.33579 7.83579 8 8.25 8Z" fill="#212121"/>
</svg>

<svg viewBox="0 0 28 28" fill="none" xmlns="http://www.w3.org/2000/svg" height="1em" width="1em">
  <path d="M9 13.5v-4h10v4H9Zm-6 8.25A3.25 3.25 0 0 0 6.25 25h15.5A3.25 3.25 0 0 0 25 21.75V6.25A3.25 3.25 0 0 0 21.75 3H6.25A3.25 3.25 0 0 0 3 6.25v15.5ZM8.25 8h11.5a.75.75 0 0 1 .75.75v5.5a.75.75 0 0 1-.75.75H8.25a.75.75 0 0 1-.75-.75v-5.5A.75.75 0 0 1 8.25 8Z" fill="#212121"/>
</svg>
